common/src/main/resources/icons/plugins/datagrip/expui/SQLOtherStatement.svg

<svg xmlns="http://www.w3.org/2000/svg" width="16" height="16" fill="#9E9E9E" data-big="true" viewBox="0 0 24 24"><path d="M7 13h14v-2H7m0 8h14v-2H7M7 7h14V5H7m-5 6h1.8L2 13.1v.9h3v-1H3.2L5 10.9V10H2m1-2h1V4H2v1h1M2 17h2v.5H3v1h1v.5H2v1h3v-4H2z"/></svg>

<!--
  - The MIT License (MIT)
  -
  - Copyright (c) 2015-2024 Elior "Mallowigi" Boukhobza
  -
  - Permission is hereby granted, free of charge, to any person obtaining a copy
  - of this software and associated documentation files (the "Software"), to deal
  - in the Software without restriction, including without limitation the rights
  - to use, copy, modify, merge, publish, distribute, sublicense, and/or sell
  - copies of the Software, and to permit persons to whom the Software is
  - furnished to do so, subject to the following conditions:
  -
  - The above copyright notice and this permission notice shall be included in all
  - copies or substantial portions of the Software.
  -
  - THE SOFTWARE IS PROVIDED "AS IS", WITHOUT WARRANTY OF ANY KIND, EXPRESS OR
  - IMPLIED, INCLUDING BUT NOT LIMITED TO THE WARRANTIES OF MERCHANTABILITY,
  - FITNESS FOR A PARTICULAR PURPOSE AND NONINFRINGEMENT. IN NO EVENT SHALL THE
  - AUTHORS OR COPYRIGHT HOLDERS BE LIABLE FOR ANY CLAIM, DAMAGES OR OTHER
  - LIABILITY, WHETHER IN AN ACTION OF CONTRACT, TORT OR OTHERWISE, ARISING FROM,
  - OUT OF OR IN CONNECTION WITH THE SOFTWARE OR THE USE OR OTHER DEALINGS IN THE
  - SOFTWARE.
  -->


<svg data-big="true" xmlns="http://www.w3.org/2000/svg" version="1.1" width="16px" height="16px" fill="#9E9E9E"
     viewBox="0 0 24 24">
  <path
    d="M7,13H21V11H7M7,19H21V17H7M7,7H21V5H7M2,11H3.8L2,13.1V14H5V13H3.2L5,10.9V10H2M3,8H4V4H2V5H3M2,17H4V17.5H3V18.5H4V19H2V20H5V16H2V17Z"/>
</svg>
